X:61
T:Contented Farmer's son - Woolrich
C:Taken down from J. Woolrich by H.Fl.S.
%%VWML:SBG-1-1-318-1
F:http://www.vwml.org/record/SBG/1/1/318
Z:Original Sibleius Transcription by Martin and Shan Graebe
L:1/4
M:4/4
K:G
D | G G A G/F/ | G E D B/c/ | d d c A | G2 z D | G G A G/F/ | G E D B/c/ | 
d A c B | G2 z B | B c d d | B c d d | c B A G | D3 | 
"Repeat as Chorus"D | G G A G/F/ | G E D B/c/ | d d e e | d c/B/ A D | G G A/c/ A/F/ | G z z2 |] 

